symbols/web/work_history/materialsymbolsoutlined/work_history_wght300grad200fill1_48px.svg

<svg xmlns="http://www.w3.org/2000/svg" height="48" width="48"><path d="M23.3 36q0 1.65.425 3.15t1.225 2.9H7.75q-1.45 0-2.5-1.05T4.2 38.5V15.6q0-1.4 1.05-2.475 1.05-1.075 2.5-1.075h8.9V8.4q0-1.45 1.075-2.5T20.2 4.85h7.6q1.4 0 2.475 1.05 1.075 1.05 1.075 2.5v3.65h8.9q1.45 0 2.5 1.075T43.8 15.6v10.5q-1.65-1.35-3.65-2.075-2-.725-4.15-.725-5.2 0-8.95 3.75Q23.3 30.8 23.3 36Zm-3.7-23.95h8.8V8.4q0-.3-.175-.475T27.8 7.75h-7.6q-.25 0-.425.175T19.6 8.4ZM36 45.45q-3.9 0-6.675-2.775T26.55 36q0-3.9 2.775-6.675T36 26.55q3.9 0 6.675 2.775T45.45 36q0 3.9-2.775 6.675T36 45.45Zm3.6-4.5 1.3-1.3-4.1-3.8V29.3h-1.95v7.2Z"/></svg>

<svg xmlns="http://www.w3.org/2000/svg" height="48" width="48"><path d="M23.3 36Q23.3 37.65 23.725 39.15Q24.15 40.65 24.95 42.05H7.75Q6.3 42.05 5.25 41Q4.2 39.95 4.2 38.5V15.6Q4.2 14.2 5.25 13.125Q6.3 12.05 7.75 12.05H16.65V8.4Q16.65 6.95 17.725 5.9Q18.8 4.85 20.2 4.85H27.8Q29.2 4.85 30.275 5.9Q31.35 6.95 31.35 8.4V12.05H40.25Q41.7 12.05 42.75 13.125Q43.8 14.2 43.8 15.6V26.1Q42.15 24.75 40.15 24.025Q38.15 23.3 36 23.3Q30.8 23.3 27.05 27.05Q23.3 30.8 23.3 36ZM19.6 12.05H28.4V8.4Q28.4 8.1 28.225 7.925Q28.05 7.75 27.8 7.75H20.2Q19.95 7.75 19.775 7.925Q19.6 8.1 19.6 8.4ZM36 45.45Q32.1 45.45 29.325 42.675Q26.55 39.9 26.55 36Q26.55 32.1 29.325 29.325Q32.1 26.55 36 26.55Q39.9 26.55 42.675 29.325Q45.45 32.1 45.45 36Q45.45 39.9 42.675 42.675Q39.9 45.45 36 45.45ZM39.6 40.95 40.9 39.65 36.8 35.85V29.3H34.85V36.5Z"/></svg>
